; generated by PrusaSlicer 2.7.4+MacOS-arm64 on 2024-05-25 at 16:33:54 UTC


;
;

;
;
; ALLOW_PETG
; ALLOW_TRANSPARENT_PETG
; ALLOW_PLA
; ALLOW_TPU_WITH_LA
; ALLOW_PP

; external perimeters extrusion width = 0.40mm
; perimeters extrusion width = 0.60mm
; infill extrusion width = 0.80mm
; solid infill extrusion width = 0.60mm
; top infill extrusion width = 0.40mm
; support material extrusion width = 0.50mm
; first layer extrusion width = 0.60mm


EXCLUDE_OBJECT_DEFINE NAME='3DBenchy_stl' CENTER=108.391,109.999 POLYGON=[[116.362,94.507],[118.556,94.615],[119.832,94.779],[122.332,95.469],[124.032,96.067],[125.752,96.785],[127.564,97.677],[129.122,98.565],[131.924,100.473],[133.524,101.771],[134.996,103.121],[137.498,105.837],[138.784,107.493],[139.682,108.799],[139.976,109.651],[139.996,110.149],[139.916,110.633],[139.624,111.301],[138.520,112.865],[136.906,114.861],[135.034,116.841],[133.338,118.389],[131.172,120.081],[129.652,121.107],[127.594,122.307],[125.540,123.309],[123.504,124.131],[121.142,124.885],[119.306,125.321],[116.002,125.499],[113.190,125.441],[110.390,125.191],[101.880,123.783],[95.657,122.850],[88.806,121.967],[81.826,121.221],[80.978,120.909],[80.406,120.371],[80.126,119.849],[80.000,119.207],[80.000,100.815],[80.072,100.323],[80.222,99.931],[80.482,99.531],[80.886,99.153],[81.310,98.919],[81.856,98.775],[88.376,98.083],[95.408,97.185],[101.233,96.321],[110.054,94.853],[113.070,94.565]]

;TYPE:Custom
M107 ; turn off fan
M221 S100 ; Set 100% flow rate
G90 ; use absolute coordinates
M83 ; extruder relative mode

M140 S80 ; set final bed temp
PREHEAT_NOZZLE IDLE=150 TARGET=255 ; preheat nozzle

G28 ; home all axis

G1 Z10 F1000 ; Lift toolhead for movement
G1 X-20 F24000 ; Move toolhead outside of the bed
M84 X Y Z E; Turn off motors

M190 S80 ; wait for bed temp to stabilize

G28 ; home all axis
BED_MESH_CALIBRATE ADAPTIVE=1
G1 X50 Y-15 Z10 F24000

M104 S255 ; set final nozzle temp
M109 S255 ; wait for nozzle temp to stabilize

G1 E30 F300

G1 Z0 F2000
G1 X0 F2000
G1 X0 Y0 Z0.28 F1000
G21 ; set units to millimeters
G90 ; use absolute coordinates
M83 ; use relative distances for extrusion
; Filament gcode
M221 S100 ; Flow
SET_PRESSURE_ADVANCE ADVANCE=0.033 SMOOTH_TIME=0.01

SET_RETRACTION RETRACT_LENGTH=0.8 
SET_RETRACTION RETRACT_SPEED=40 
SET_RETRACTION UNRETRACT_EXTRA_LENGTH=0 
SET_RETRACTION UNRETRACT_SPEED=40
M107
;LAYER_CHANGE
;Z:0.25
;HEIGHT:0.25
G10 ; retract
G1 Z.25 F36000
G1 X79.8 Y97.769
G11 ; unretract
M204 S4000
;TYPE:Skirt/Brim
;WIDTH:0.6
G1 F3600
G1 X80.654 Y97.14 E.06023
G1 X82.082 Y96.372 E.09207
G1 X83.59 Y95.868 E.09029
G1 X84.838 Y95.65 E.07194
G1 X108.698 Y94.184 E1.35748
G1 X110.335 Y94.146 E.09298
G1 X111.945 Y94.222 E.09153
G1 X113.381 Y94.389 E.08209
G1 X116.224 Y95.001 E.16514
G1 X118.942 Y95.96 E.16367
G1 X121.528 Y97.265 E.16449
G1 X123.997 Y98.943 E.16952
G1 X126.162 Y100.867 E.16447
G1 X127.159 Y101.943 E.0833
G1 X128.14 Y103.155 E.08855
G1 X129.749 Y105.606 E.16649
G1 X130.418 Y107.126 E.09431
G1 X130.829 Y108.956 E.10651
G1 X130.888 Y109.959 E.05706
G1 X130.837 Y110.95 E.05635
G1 X130.679 Y111.929 E.05631
G1 X130.406 Y112.91 E.05782
G1 X129.646 Y114.577 E.10404
G1 X128.118 Y116.877 E.1568
G1 X126.49 Y118.792 E.14273
G1 X124.692 Y120.493 E.14055
G1 X123.11 Y121.717 E.11359
G1 X121.527 Y122.736 E.10691
G1 X119.831 Y123.638 E.10908
G1 X117.966 Y124.43 E.11506
G1 X116.129 Y125.026 E.10967
G1 X114.188 Y125.476 E.11315
G1 X112.291 Y125.746 E.10881
G1 X110.242 Y125.856 E.11652
G1 X108.205 Y125.786 E.11574
G1 X84.361 Y124.287 E1.35669
G1 X82.572 Y123.823 E.10495
G1 X81.179 Y123.18 E.08712
G1 X79.806 Y122.235 E.09465
G1 X78.618 Y121.06 E.09489
G1 X77.891 Y120.074 E.06957
G1 X77.235 Y118.868 E.07796
G1 X76.76 Y117.579 E.07801
G1 X76.488 Y116.344 E.07181
G1 X76.377 Y114.919 E.08117
G1 X76.386 Y104.698 E.58041
G1 X76.507 Y103.534 E.06646
G1 X76.764 Y102.409 E.06553
G1 X77.485 Y100.621 E.10948
G1 X78.335 Y99.291 E.08963
G1 X79.134 Y98.379 E.06885
G1 X79.755 Y97.809 E.04787
M204 S4800
M204 S5000
G1 X79.755 Y97.809 F36000
G1 X80.124 Y98.211
M204 S4000
G1 F3600
G1 X80.148 Y98.19 E.00181
G1 X80.957 Y97.594 E.05706
G1 X82.299 Y96.873 E.08651
G1 X83.717 Y96.399 E.0849
G1 X84.895 Y96.194 E.0679
G1 X108.731 Y94.729 E1.35612
G1 X110.332 Y94.692 E.09094
G1 X111.897 Y94.767 E.08897
G1 X113.3 Y94.929 E.0802
G1 X116.079 Y95.528 E.16143
G1 X118.729 Y96.463 E.15958
G1 X121.247 Y97.733 E.16015
G1 X123.66 Y99.373 E.16568
G1 X125.776 Y101.254 E.16077
G1 X127.704 Y103.485 E.16744
G1 X129.272 Y105.873 E.16223
G1 X129.693 Y106.747 E.05509
G1 X129.997 Y107.609 E.0519
G1 X130.175 Y108.33 E.04217
G1 X130.328 Y109.506 E.06734
G1 X130.249 Y111.247 E.09897
G1 X129.831 Y112.896 E.0966
G1 X129.528 Y113.628 E.04499
G1 X128.966 Y114.654 E.06643
G1 X127.45 Y116.848 E.15144
G1 X125.841 Y118.68 E.13846
G1 X124.181 Y120.209 E.12816
G1 X122.642 Y121.378 E.10975
G1 X120.987 Y122.417 E.11097
G1 X119.36 Y123.256 E.10395
G1 X117.626 Y123.973 E.10655
G1 X115.914 Y124.518 E.10203
G1 X114.001 Y124.955 E.11143
G1 X112.24 Y125.202 E.10098
G1 X110.235 Y125.309 E.11402
G1 X108.238 Y125.241 E.11347
G1 X84.451 Y123.748 E1.35344
G1 X82.763 Y123.311 E.09902
G1 X81.452 Y122.706 E.08199
G1 X80.154 Y121.814 E.08944
G1 X79.033 Y120.706 E.0895
G1 X78.348 Y119.776 E.06559
G1 X77.733 Y118.642 E.07326
G1 X77.284 Y117.423 E.07377
G1 X77.028 Y116.259 E.06768
G1 X76.924 Y114.919 E.07632
G1 X76.932 Y104.721 E.57911
G1 X77.047 Y103.62 E.06286
G1 X77.287 Y102.566 E.06138
G1 X77.966 Y100.88 E.10321
G1 X78.772 Y99.619 E.08499
G1 X79.517 Y98.767 E.06427
G1 X80.08 Y98.252 E.04333
M204 S4800
M204 S5000
G1 X80.08 Y98.252 F36000
G1 X80.452 Y98.708
M204 S4000
G1 F3600
G1 X81.26 Y98.049 E.05921
G1 X82.517 Y97.375 E.08099
G1 X83.844 Y96.931 E.07946
G1 X84.951 Y96.737 E.06382
G1 X108.764 Y95.274 E1.35481
G1 X110.329 Y95.238 E.08889
G1 X113.219 Y95.47 E.16464
G1 X115.934 Y96.055 E.15771
G1 X118.516 Y96.966 E.15548
G1 X120.966 Y98.201 E.1558
G1 X123.323 Y99.803 E.16183
G1 X125.391 Y101.641 E.15711
G1 X127.268 Y103.814 E.16306
G1 X128.796 Y106.14 E.15804
G1 X129.472 Y107.76 E.09968
G1 X129.782 Y109.534 E.10227
G1 X129.709 Y111.17 E.093
G1 X129.304 Y112.748 E.09251
G1 X128.5 Y114.369 E.10275
G1 X127.018 Y116.514 E.14805
G1 X125.448 Y118.3 E.13504
G1 X123.736 Y119.868 E.13183
G1 X122.334 Y120.926 E.09974
G1 X120.606 Y122.005 E.11569
G1 X119.013 Y122.814 E.10146
G1 X117.259 Y123.525 E.10748
G1 X115.439 Y124.08 E.10805
G1 X113.906 Y124.417 E.08913
G1 X112.189 Y124.658 E.09846
G1 X110.228 Y124.763 E.11152
G1 X108.271 Y124.696 E.1112
G1 X84.541 Y123.209 E1.35019
G1 X82.953 Y122.799 E.09313
G1 X81.724 Y122.233 E.07684
G1 X80.502 Y121.392 E.08424
G1 X79.461 Y120.365 E.08304
G1 X78.806 Y119.477 E.06266
G1 X78.23 Y118.416 E.06856
G1 X77.807 Y117.267 E.06953
G1 X77.567 Y116.173 E.0636
G1 X77.47 Y114.919 E.07142
G1 X77.478 Y104.743 E.57786
G1 X77.587 Y103.706 E.05921
G1 X77.81 Y102.723 E.05724
G1 X78.447 Y101.138 E.097
G1 X79.209 Y99.947 E.08029
G1 X79.901 Y99.156 E.05968
G1 X80.405 Y98.746 E.03689
M204 S4800
G10 ; retract
M204 S5000
G1 X80.405 Y98.746 F36000
EXCLUDE_OBJECT_START NAME='3DBenchy_stl'
G1 X89.319 Y109.041
G11 ; unretract
M204 S4000
;TYPE:Perimeter
;WIDTH:0.599999
G1 F3600
G1 X89.434 Y109.004 E.00686
G1 X89.765 Y108.716 E.02492
G1 X89.97 Y108.397 E.02153
G1 X90.115 Y108.547 E.01185
G1 X90.489 Y108.739 E.02387
G1 X90.976 Y108.787 E.02779
G1 X91.561 Y108.723 E.03342
G1 X91.536 Y109.157 E.02469
G1 X91.553 Y111.911 E.15639
G1 X91.522 Y112.414 E.02862
G1 X91.538 Y112.746 E.01887
G1 X91.694 Y113.148 E.02449
G1 X91.907 Y113.375 E.01768
G1 X92.331 Y113.595 E.02713
G1 X92.796 Y113.651 E.0266
G1 X93.223 Y113.563 E.02476
G1 X93.411 Y113.448 E.01251
G1 X93.716 Y113.177 E.02317
G1 X93.867 Y112.885 E.01867
G1 X93.989 Y112.338 E.03183
G1 X93.972 Y108.748 E.20387
G1 X94.433 Y108.752 E.02618
G1 X95.076 Y108.665 E.03685
G1 X95.4 Y108.506 E.02049
G1 X95.641 Y108.279 E.0188
G1 X95.711 Y108.41 E.00843
G1 X95.938 Y108.674 E.01977
G1 X96.398 Y108.924 E.02973
G1 X96.216 Y109.299 E.02367
G1 X96.138 Y109.709 E.0237
G1 X96.194 Y110.103 E.0226
G1 X96.346 Y110.418 E.01986
G1 X96.562 Y110.612 E.01649
G1 X96.679 Y110.665 E.00729
;WIDTH:0.569938
G1 X96.796 Y110.718 E.00689
;WIDTH:0.539877
G1 X96.961 Y110.744 E.00844
;WIDTH:0.493121
G1 X97.127 Y110.771 E.00768
;WIDTH:0.446364
G1 X97.292 Y110.798 E.00682
;WIDTH:0.433877
G1 X97.686 Y110.929 E.01641
G1 X97.918 Y111.178 E.01345
G1 X97.949 Y111.364 E.00745
G1 X97.853 Y111.48 E.00595
G1 X97.49 Y111.254 E.0169
G1 X97.211 Y111.134 E.012
;WIDTH:0.439947
G1 X97.082 Y111.091 E.00546
;WIDTH:0.480286
G1 X96.954 Y111.048 E.00599
;WIDTH:0.520625
G1 X96.826 Y111.006 E.00654
;WIDTH:0.560964
G1 X96.698 Y110.963 E.00712
;WIDTH:0.599999
G1 X96.323 Y110.993 E.02136
G1 X95.937 Y111.176 E.02426
G1 X95.666 Y111.46 E.02229
G1 X95.506 Y111.807 E.0217
G1 X95.453 Y112.156 E.02005
G1 X95.538 Y112.586 E.02489
G1 X95.658 Y112.907 E.01946
G1 X95.965 Y113.272 E.02708
G1 X96.47 Y113.571 E.03333
G1 X97.172 Y113.765 E.04136
G1 X97.686 Y113.802 E.02926
G1 X98.245 Y113.766 E.03181
G1 X98.759 Y113.643 E.03001
G1 X99.233 Y113.42 E.02975
G1 X99.645 Y113.104 E.02949
G1 X99.997 Y112.689 E.0309
G1 X100.244 Y112.228 E.0297
G1 X100.392 Y111.74 E.02896
G1 X100.366 Y112.258 E.02945
G1 X100.446 Y112.792 E.03066
G1 X100.556 Y113.082 E.01761
G1 X100.813 Y113.408 E.02357
G1 X101.159 Y113.593 E.02228
G1 X101.544 Y113.658 E.02217
G1 X102.114 Y113.623 E.03243
G1 X102.91 Y113.629 E.0452
G1 X103.677 Y113.568 E.04369
G1 X104.117 Y113.458 E.02575
G1 X104.654 Y113.27 E.03231
G1 X105.133 Y112.957 E.03249
G1 X105.383 Y113.425 E.03013
G1 X105.788 Y113.8 E.03134
G1 X106.08 Y113.958 E.01885
G1 X106.654 Y114.108 E.03369
G1 X107.124 Y114.067 E.02679
G1 X107.451 Y113.958 E.01957
G1 X107.923 Y113.675 E.03125
G1 X108.14 Y113.409 E.01949
G1 X108.396 Y113.634 E.01935
G1 X108.77 Y113.796 E.02314
G1 X109.147 Y113.819 E.02145
G1 X109.482 Y113.734 E.01963
G1 X109.913 Y113.387 E.03142
G1 X110.109 Y113.138 E.01799
G1 X110.462 Y113.574 E.03186
G1 X110.763 Y113.741 E.01955
G1 X111.078 Y113.84 E.01875
G1 X111.577 Y113.78 E.02854
;WIDTH:0.591206
G1 X111.783 Y113.701 E.01233
;WIDTH:0.606145
G1 X111.946 Y113.588 E.01139
;WIDTH:0.647651
G1 X112.11 Y113.475 E.0123
;WIDTH:0.689156
G1 X112.273 Y113.362 E.0131
G1 X112.348 Y113.214 E.01096
;WIDTH:0.710866
G1 X112.425 Y112.966 E.01774
;WIDTH:0.739482
G1 X112.503 Y112.717 E.0186
G1 X112.457 Y112.48 E.01721
;WIDTH:0.699594
G1 X112.411 Y112.244 E.01614
;WIDTH:0.670357
G1 X112.216 Y111.774 E.03262
;WIDTH:0.715717
G1 X111.975 Y111.328 E.03489
;WIDTH:0.761077
G1 X111.639 Y110.723 E.05088
G1 X111.666 Y110.633 E.00691
G1 X112.108 Y109.887 E.06376
G1 X112.368 Y110.575 E.05408
G1 X112.569 Y111.04 E.03725
;WIDTH:0.715717
G1 X112.769 Y111.506 E.0349
;WIDTH:0.670357
G1 X112.806 Y111.595 E.00618
;WIDTH:0.66927
G1 X113.02 Y112.165 E.03896
;WIDTH:0.704376
G1 X113.113 Y112.42 E.01836
;WIDTH:0.739482
G1 X113.206 Y112.674 E.01928
G1 X113.044 Y113.15 E.03584
;WIDTH:0.710866
G1 X112.932 Y113.445 E.02155
;WIDTH:0.689156
G1 X112.738 Y113.806 E.02707
G1 X112.426 Y113.948 E.02264
;WIDTH:0.649551
G1 X112.213 Y114.058 E.01485
;WIDTH:0.609945
G1 X112.001 Y114.167 E.01378
;WIDTH:0.599999
G1 X111.702 Y114.44 E.02299
G1 X111.606 Y114.643 E.01275
G1 X111.547 Y115.164 E.02977
G1 X111.692 Y115.645 E.02853
G1 X111.865 Y115.922 E.01855
G1 X112.113 Y116.157 E.0194
;WIDTH:0.639674
G1 X112.68 Y116.38 E.03711
;WIDTH:0.676585
G1 X112.919 Y116.396 E.01551
G1 X113.468 Y116.296 E.03613
;WIDTH:0.690767
G1 X113.988 Y116.097 E.03687
G1 X114.059 Y116.041 E.00599
;WIDTH:0.662145
G1 X114.13 Y115.985 E.00572
;WIDTH:0.633523
G1 X114.524 Y115.61 E.03278
;WIDTH:0.599999
G1 X114.704 Y115.373 E.0169
G1 X115.112 Y114.56 E.05165
G1 X115.529 Y113.493 E.06505
G1 X116.133 Y111.743 E.10513
;WIDTH:0.606755
G1 X116.323 Y111.288 E.02835
;WIDTH:0.656519
G1 X116.513 Y110.832 E.03095
;WIDTH:0.697922
G1 X116.697 Y110.386 E.03231
;WIDTH:0.739324
G1 X116.88 Y109.941 E.03429
G1 X117.089 Y110.099 E.01867
G1 X117.584 Y110.249 E.03686
G1 X117.149 Y110.932 E.05771
;WIDTH:0.690069
G1 X116.98 Y111.213 E.02169
;WIDTH:0.640814
G1 X116.81 Y111.495 E.0201
;WIDTH:0.591558
G1 X116.551 Y112.047 E.03409
;WIDTH:0.599999
G1 X116.465 Y112.63 E.03346
G1 X116.511 Y112.941 E.01785
G1 X116.684 Y113.335 E.02444
G1 X116.996 Y113.633 E.0245
G1 X117.401 Y113.818 E.02528
G1 X119.428 Y113.824 E.11511
G1 X118.735 Y114.401 E.05121
G1 X118.165 Y114.821 E.04021
G1 X117.676 Y115.147 E.03337
G1 X116.953 Y115.578 E.0478
G1 X116.179 Y115.978 E.04948
G1 X115.298 Y116.365 E.05464
G1 X114.624 Y116.609 E.0407
;WIDTH:0.645383
G1 X114.414 Y116.652 E.01318
;WIDTH:0.690767
G1 X114.203 Y116.695 E.01426
G1 X113.531 Y116.906 E.04664
;WIDTH:0.676585
G1 X112.76 Y117.081 E.05119
;WIDTH:0.638292
G1 X112.486 Y117.155 E.01725
;WIDTH:0.599999
G1 X111.846 Y117.257 E.0368
G1 X110.908 Y117.345 E.0535
G1 X109.932 Y117.37 E.05544
G1 X108.713 Y117.316 E.06929
G1 X85.905 Y115.922 E1.2976
G1 X85.381 Y115.794 E.03063
G1 X85.116 Y115.593 E.01889
G1 X84.953 Y115.295 E.01929
G1 X84.862 Y114.833 E.02674
G1 X84.862 Y112.294 E.14418
G1 X85.417 Y112.987 E.05042
G1 X85.818 Y113.294 E.02868
G1 X86.584 Y113.655 E.04809
G1 X87.241 Y113.782 E.038
G1 X88.201 Y113.751 E.05454
G1 X88.772 Y113.595 E.03361
G1 X89.012 Y113.485 E.01499
G1 X89.495 Y113.158 E.03312
G1 X89.819 Y112.78 E.02827
G1 X90.044 Y112.339 E.02811
G1 X90.113 Y112.058 E.01643
G1 X90.045 Y111.635 E.02433
G1 X89.841 Y111.273 E.0236
G1 X89.585 Y111.035 E.01985
G1 X89.4 Y110.943 E.01173
G1 X88.902 Y110.797 E.02947
G1 X88.436 Y110.843 E.02659
G1 X88.076 Y111.015 E.02266
G1 X87.841 Y111.254 E.01903
G1 X87.73 Y111.279 E.00646
G1 X87.482 Y111.296 E.01412
G1 X87.195 Y111.208 E.01705
G1 X87.006 Y111.012 E.01546
G1 X86.846 Y110.512 E.02981
G1 X86.812 Y110.008 E.02869
G1 X86.847 Y109.494 E.02926
G1 X86.936 Y109.088 E.0236
G1 X87.069 Y108.829 E.01653
G1 X87.283 Y108.684 E.01468
G1 X87.504 Y108.641 E.01279
G1 X87.716 Y108.683 E.01227
G1 X88.182 Y108.957 E.0307
G1 X88.693 Y109.131 E.03065
G1 X89.118 Y109.106 E.02418
G1 X89.262 Y109.059 E.0086
M204 S4800
G10 ; retract
M204 S5000
G1 X89.262 Y109.059 F36000
G1 X122.394 Y110.004
G11 ; unretract
M204 S4000
G1 F3600
G1 X122.363 Y110.183 E.01032
G1 X121.893 Y110.988 E.05293
G1 X121.547 Y111.49 E.03462
G1 X121.134 Y112.032 E.0387
G1 X120.934 Y111.734 E.02038
G1 X120.801 Y111.622 E.00987
G1 X120.416 Y111.444 E.02409
G1 X119.932 Y111.359 E.02791
G1 X120.746 Y110.21 E.07996
G1 X121.053 Y109.682 E.03468
G1 X121.162 Y109.332 E.02082
G1 X121.191 Y108.946 E.02198
G1 X121.143 Y108.624 E.01849
;WIDTH:0.584829
G1 X121.064 Y108.498 E.00821
;WIDTH:0.544972
G1 X120.984 Y108.372 E.00762
;WIDTH:0.505114
G1 X120.904 Y108.246 E.007
;WIDTH:0.507154
G1 X120.778 Y108.115 E.00857
;WIDTH:0.549052
G1 X120.652 Y107.985 E.00932
;WIDTH:0.590949
G1 X120.526 Y107.854 E.01015
;WIDTH:0.599999
G1 X120.39 Y107.804 E.00823
G1 X120.02 Y107.738 E.02134
G1 X117.899 Y107.737 E.12044
G1 X117.33 Y107.816 E.03262
G1 X117.001 Y107.983 E.02095
G1 X116.757 Y108.202 E.01862
G1 X116.648 Y108.065 E.00994
G1 X116.487 Y107.953 E.01114
G1 X116.02 Y107.749 E.02894
G1 X115.711 Y107.753 E.01755
G1 X115.344 Y107.885 E.02215
G1 X115.016 Y108.178 E.02498
G1 X114.729 Y108.639 E.03084
G1 X114.532 Y109.116 E.02931
G1 X114.283 Y108.4 E.04305
G1 X114.075 Y108.156 E.01821
G1 X113.799 Y107.919 E.02066
G1 X113.6 Y107.842 E.01212
G1 X113.058 Y107.736 E.03136
G1 X112.608 Y107.841 E.02624
G1 X112.339 Y108.007 E.01795
G1 X112.155 Y108.247 E.01717
G1 X111.957 Y108.019 E.01715
G1 X111.611 Y107.81 E.02295
G1 X111.341 Y107.741 E.01583
G1 X110.919 Y107.779 E.02406
G1 X110.514 Y107.989 E.02591
G1 X110.185 Y108.338 E.02724
G1 X109.808 Y107.962 E.03024
G1 X109.492 Y107.796 E.02027
G1 X109.049 Y107.736 E.02539
G1 X108.604 Y107.85 E.02609
G1 X108.255 Y108.088 E.02399
G1 X108.014 Y108.456 E.02498
G1 X107.924 Y108.845 E.02267
G1 X107.967 Y109.235 E.02228
G1 X108.191 Y109.772 E.03304
G1 X108.767 Y110.759 E.06489
G1 X108.554 Y111.066 E.02122
G1 X108.288 Y111.525 E.03013
G1 X108.014 Y111.141 E.02679
G1 X107.676 Y110.88 E.02425
G1 X107.216 Y110.681 E.02846
G1 X106.829 Y110.623 E.02222
